X:1
T: The Four Mile Stone
C:
R:Reel
Q: 232
K:Em
M:4/4
L:1/8
|:E2 BE E2 BE|E2 eB AG FE|D2 AD D2 AD|D2 dB AF ED|
E2 BE E2 ef|gf gf e2 dB|ge fd eB AB|((3dcB) ((3cBA) BG FD|
Ee ((3gfe) be ((3gfe)|E2 ((3BcB) ((3GAG) ((3EFE)|DA, ((3GED) AE ((3FED)|d2 ((3aba) ((3fgf) ((3ded)|
EB Be ef ((3gab)|ed cA B2 ef|((3gfe) dB cA BG|1((3ABc) ((3BAG) ((3FGA) ((3GFD) :|2((3ABc) BG E2 e2||
